!!!ONB: MCCC : IGF0115_00 : Extracted Monophonic Melody
!!!COM: Fauré, Gabriel
!!!OTL: Thème et variations
!!!SCT: Op.73
!!!ODT: 1895///
**kern
*staff1
*clefG2
*k[f#c#g#d#]
*E:
*M4/4
=2
8c#[
8c#]
8d#
16d#
16e
8f#[
8f#]
8g#[
8g#]
=3
8a[
8a]
8b
16b
16cc#
8g#[
8g#]
8a
16a
16b
=4
8e[
8e]
8f#
16f#
16g#
8c#[
8c#]
8d#
16d#
16e
=5
8G#[
8G#]
8B#[
8B#]
8c#
8c#
8c#[
8c#]
=6
8d#[
8d#]
8e
16e
16f#
8g#[
8g#]
8f#
16f#
16e
=7
8d[
8d]
8c#
16c#
16B
8c#
8c#
8c#[
8c#]
=8
8d#[
8d#]
8e
16e
16f#
8g#[
8g#]
8f#
16f#
16e
=9
8d[
8d]
8c#
16c#
16B
8c#
8c#
8c#[
8c#]
=10
8c#[
8c#]
8d#
16d#
16e
8f#[
8f#]
8g#[
8g#]
=11
8a[
8a]
8b
16b
16cc#
8g#[
8g#]
8a
16a
16b
=12
8e[
8e]
8f#
16f#
16g#
8c#[
8c#]
8d#
16d#
16e
=13
8G#[
8G#]
8B#[
8B#]
8c#
8c#
8c#[
8c#]
=14
8d#[
8d#]
8e
16e
16f#
8g#[
8g#]
8f#
16f#
16e
=15
8d[
8d]
8c#
16c#
16B
8c#
8c#
8c#[
8c#]
=16
8d#[
8d#]
8e
16e
16f#
8g#[
8g#]
8f#
16f#
16e
=17
8d[
8d]
8c#
16c#
16B
8c#
8c#
8c#[
8c#]
=18
8c#[
8c#]
8d#
16d#
16e
8f#[
8f#]
8g#[
8g#]
=19
8a[
8a]
8b
16b
16cc#
8g#[
8g#]
8a
16a
16b
=20
8e[
8e]
8f#
16f#
16g#
8c#[
8c#]
8d#
16d#
16e
=21
8G#[
8G#]
8B#[
8B#]
8c#
8c#
8c#[
8c#]
=22
*M5/4
4r
16r
16eee
16ddd#
16ccc#
16bb#
16ccc#
16bb
16aa
16gg#
16aa
16gg#
16ff#
16ee
16ff#
16ee
16dd#
=23
*M4/4
16b#
16cc#
16dd#
16ee
16ee#
16ff#
16gg#
16aa
16aa#
16bb
16ccc#
16ddd#
16fff#
16eee
16ddd#
16ccc#
=24
16ccc#
16bb
16aa
16gg#
16ddd#
16ccc#
16bb
16aa
16gg#
16ff#
16ee
16dd#
16ff#
16ee
16dd#
16cc#
=25
16b#
16cc#
16b
16a
16g#
16f#
16e
16d#
16f#
16e
16d#
16c#
16B#
16c#
16d#
16e
=26
16r
16f#
16g#
16a
16cc#
16b
16cc#
16dd#
16ff#
16ee
16ff#
16gg#
16bb
16aa
16ddd
16eee
=27
16ggg
16fff#
16ddd
16aa
16ff#
16ee#
16ff#
16gg#
16ff#
16ee
16dd#
16cc#
16b#
16cc#
16a
16g#
=28
16e#
16f#
16g#
16a
16cc#
16b
16cc#
16dd#
16ff#
16ee
16ff#
16gg#
16bb
16aa
16ddd
16eee
=29
16ggg
16fff#
16ddd
16aa
16ff#
16ee#
24ff#
48aa
16gg#
16ff#
16ee#
16gg#
16dd
16cc#
16b
16a
16g#
=30
16a
16cc#
16ff#
16aa
16ccc#
16aa
16gg#
16ff#
16ee
16dd#
16ff#
16dd#
16cc#
16b
16ee
16dd#
=31
16b#
16cc#
16dd#
16ee
16ee#
16ff#
16gg#
16aa
16aa#
16bb
16ccc#
16ddd#
16fff#
16eee
16ddd#
16ccc#
=32
16ccc#
16bb
16aa
16gg#
16ddd#
16ccc#
16bb
16aa
16gg#
16ff#
16ee
16dd#
16ff#
16ee
16dd#
16cc#
=33
16b#
16cc#
16b
16a
16g#
16f#
16e
16d#
16f#
16e
16d#
16c#
16B#
16c#
16e
16f#
=34
16r
16g#
16a#
16b#
8cc#
16dd#
16ee
16r
16cc#
16dd#
16ee#
8ff#
16gg#
16aa
=35
16r
16ff#
16gg#
16aa#
8bb
16ccc#
16ddd
16r
16dd
16ee
16ff#
8gg#
16aa
16bb
=36
16r
16ee
16ff#
16gg#
8aa
16bb
16ccc#
16r
16cc#
16dd
16ee
8ff#
16gg#
16aa
=37
16r
16f#
16g#
16a#
8b#
16cc#
16dd#
16r
16g#
16a#
16b#
4cc#
=38
4dd#
4ee
4ff#
4gg#
=39
4gg#
4ee
4dd
4cc#
=40
4dd#
4ee
4ff#
4gg#
=41
4gg#
4ee
4dd
4cc#
=42
8r
16dd#
16ee#
8ff#
16gg#
16aa
16r
16ff#
16gg#
16aa#
8bb
16ccc#
16ddd
=43
16r
16dd
16ee
16ff#
8gg#
16aa
16bb
16r
16ee
16ff#
16gg#
8aa
16bb
16ccc#
=44
16r
16cc#
16dd
16ee
8ff#
16gg#
16aa
16r
16a
16a#
16b#
8cc#
16dd#
16ee
=45
16r
16f#
16g#
16a#
8b#
16cc#
16dd#
16r
16g#
16a#
16b#
4cc#
=46
4dd#
4ee
4ff#
4gg#
=47
4gg#
4ee
4dd
4cc#
=48
4dd#
4ee
4ff#
4gg#
=49
4gg#
4ee
4dd
4cc#
=50
8r
16dd#
16ee#
8ff#
16gg#
16aa
16r
16ff#
16gg#
16aa#
8bb
16ccc#
16ddd
=51
16r
16dd
16ee
16ff#
8gg#
16aa
16bb
16r
16ee
16ff#
16gg#
8aa
16bb
16ccc#
=52
16r
16cc#
16dd
16ee
8ff#
16gg#
16aa
16r
16a
16a#
16b#
8cc#
16dd#
16ee
=53
16r
16f#
16g#
16a#
8b#
16cc#
16dd#
16r
16g#
16a#
16b#
4cc#
=54
4r
4cc#
8cc#
8e
12cc#
12g#
12a
=55
*M3/4
12dd#
12a
12b
8ee
8b
12aa
12dd#
12ee
=56
12gg#
12ee
12ff#
8gg#
8ff#
12gg#
12aa#
12bb#
=57
12aa#
12bb#
12ccc#
8ddd#
8eee
12fff#
12eee
12ddd#
=58
12ddd#
12ccc#
12bb
8ccc#
8bb
12aa
12gg#
12ff#
=59
12gg#
12ff#
12ee
8ff#
8ee
12dd
12cc#
12b
=60
12cc#
12b#
12a#
8b#
8a#
12g#
12f#
12e
=61
12g#
12e
12d#
8g#
8d#
4c#
=62
8d#
8d
12e
12d#
12f#
12e
12g#
12f#
=63
8a
8g#
12b
12a#
12cc#
12b
12a
12g#
=64
8f#
8e#
12g#
12f#
12e
12d#
12B#
12c#
=65
2d#
12B
12c#
12d
=66
8d#
8d
12e
12d#
12f#
12e
12g#
12f#
=67
8a
8g#
12b
12a#
12cc#
12b
12a
12g#
=68
8f#
8e#
12g#
12f#
12e
12d
12A
12B
=69
2c#
12e#
12f#
12g
=70
*M2/4
4g#
8a
8e#
=71
*M3/4
4cc#
4dd#
8ee
8b
=72
12aa
12dd#
12ee
12gg#
12ee
12ff#
8gg#
8ff#
=73
12gg#
12aa#
12bb#
12aa#
12bb#
12ccc#
8ddd#
8eee
=74
12fff#
12eee
12ddd#
12ddd#
12ccc#
12bb
8ccc#
8bb
=75
12aa
12gg#
12ff#
12gg#
12ff#
12ee
8ff#
8ee
=76
12dd
12cc#
12b
12cc#
12b#
12a#
8b#
8a#
=77
*M4/4
12g#
12f#
12e
12g#
12e
12d#
8g#
8d#
4c#
=78
*M3/4
16r
32r
32eeee
8eee
8ccc#
8gg#
8ee
8cc#
=79
16r
32r
32eeee
8eee
8bb#
8gg#
8ee
8b#
=80
16b
16gg
16dd
16bb
16cc#
16bb
16gg#
16ccc#
16dd
16ddd
16cc#
16ccc#
=81
16b#
16b#
16b#
16b#
16b#
16b#
16b#[
16b#]
16g#
16g#
16g#[
16g#]
=82
16gg#
16gg#
16gg#[
16gg#]
16ff#
16ff#
16ff#[
16ff#]
16ee
16ee
16ee[
16ee]
=83
16.dd
32aaaa
8aaa
8fff#
8ddd
8aa
8ff#
=84
16f#
16ee
16b#
16ff#
16g
16ee
16b#
16gg
16b#
16gg
16ee
16bb#
=85
16b#
16gg#
16ff#
16bb#
16bb#
16ggg#
16fff#
16bbb#
4cccc#
=86
2b#
4r
=87
4r
16r
32r
32aa
8gg
8cc#
8ee
=88
2dd
8r
8aa
=89
4r
4r
16r
32r
32dd#
8cc#
=90
8b#
8ee
4dd#
4r
=91
4r
16r
32r
32aa
8gg
8cc#
8ee
=92
16.dd#
32ddd#
8ccc#
8gg
8ee
8ff#
8gg#
=93
8aa
8a
8f#
8d#
8B
8B#
=94
16r
32r
32eeee
8eee
8bb
16.gg#
32eee
8ee
8a#
=95
16r
32r
32eeee
8eee
8bb#
8gg#
8ee
8b#
=96
4b
16r
16bb
16gg#
16ccc#
16dd
16ddd
16cc#
16ccc#
=97
16b#
16b#
16b#
16b#
16b#
16b#
16b#[
16b#]
16g#
16g#
16g#[
16g#]
=98
16gg#
16gg#
16gg#[
16gg#]
16ff#
16ff#
16ff#[
16ff#]
16ee
16ee
16ee[
16ee]
=99
16.dd
32aaaa
8aaa
8fff#
8ddd
8aa
8ff#
=100
16f#
16ee
16b#
16ff#
16g
16ee
16b#
16gg
16b#
16gg
16ee
16bb#
=101
16b#
16gg#
16ff#
16bb#
16bb#
16ggg#
16fff#
16bbb#
4cccc#
=102
*M2/4
4r
8r
16r
32r
32g#
=103
*M3/4
8cc#
8dd#
4ee
8ff#
16.gg#[
32gg#]
=104
8aa
8bb
4ccc#
8ddd#
16.eee[
32eee]
=105
8fff#
8ggg#
4aaa
8bbb
16.cccc#[
32cccc#]
=106
8dddd
8eeee
4ffff#
8eeee
16.dddd[
32dddd]
=107
8cccc#
8bbb
4aaa
8ggg
16.fff#[
32fff#]
=108
8eee
8ddd
4bb#
8bb
16.aa[
32aa]
=109
8gg#
8ff#
4dd#
8ee
16.b#
32ee
=110
8dd#
8cc#
8b#
4.cc#
=111
16.g#
32b
8a
4g#
8b#
8cc#
=112
16.dd
32ff#
8ee
4dd
8cc#
8dd
=113
16.ee
32gg
8ff#
4ee
8ff#
8gg
=114
8g#
8a
4g#
8f##
8g#
=115
16.gg#
32bb
8aa
4gg#
8ff##
8gg#
=116
16.aa#
32ccc#
8bb#
4aa#
8gg##
8aa#
=117
16.bb#
32ddd#
8ccc#
4bb#
8aa##
8bb#
=118
16.bb#
32eee
8ddd#
8ccc#
8gg#
8ee
8cc#
=119
16.g#
32b
8a
4g#
8b#
8cc#
=120
16.g#
32b
8a
4g#
8b#
8cc#
=121
16.dd
32ff#
8ee
4dd
8cc#
8dd
=122
16.ee
32gg
8ff#
4ee
8ff#
8gg
=123
16.gg#
32bb
8aa
4gg#
8ff##
8gg#
=124
16.aa#
32ccc#
8bb#
4aa#
8gg##
8aa#
=125
16.bb#
32ddd#
8ccc#
4bb#
8aa##
8bb#
=126
16.bb#
32eee
8ddd#
2ccc#
=127
2.r
=128
*M4/4
8aaaa
8gggg#
8dddd#
8cccc#
8aaa
8ggg#
8eee
8ddd#
=129
8aa
8gg#
8dd
8cc#
8a
8g#
8d#
8c#
=130
8ddd#
8ccc#
8bb#
8aa#
8bb#
8ccc#
16ddd#
16eee
16fff#
16eee
=131
8ddd#
8ccc#
8bb#
8aa#
8bb#
8ccc#
16ddd#
16eee
16fff#
16eee
=132
16r
16aaa
16aaaa
16gggg#
16r
16ddd#
16dddd#
16cccc#
16r
16aa
16aaa
16ggg#
16r
16ee
16eee
16ddd#
=133
16r
16a
16aa
16gg#
16r
16d
16dd
16cc#
16r
16A
16a
16g#
16r
16D#
16d#
16c#
=134
8ddd#
8ccc#
8bb#
8aa#
8bb#
8ccc#
16ddd#
16eee
16fff#
16eee
=135
8ddd#
8ccc#
8bb#
8aa#
8bb#
8ccc#
16ddd#
16eee
16fff#
16eee
=136
24r
24aaa
24aaaa
24gggg
24gggg#
24ggg#
24r
24ddd#
24dddd#
24bbb#
24cccc#
24ccc#
24r
24aa
24aaa
24ggg
24ggg#
24gg#
24r
24ee
24eee
24ddd
24ddd#
24dd#
=137
24r
24a
24aa
24gg
24gg#
24g#
24r
24d
24dd
24b#
24cc#
24c#
24r
24A
24a
24g
24g#
24G#
24r
24D#
24d#
24B#
24c#
24C#
=138
*M2/4
4C#
4r
=139
*M4/4
16r
16c#
16B#
16c#[
16c#]
8d#
16e
4e
4f#
=140
16B
16g#
16f#
16g#[
16g#]
8a
16b
4b
4cc#
=141
16g
16dd#
16cc#
16dd#
16dd#
8ee
16ff#
4ff#
4gg#
=142
16cc#
16aa#
16aa
16aa#[
16aa#]
8bb#
16ccc#
32g#
32ddd#
16gg#
8dd#
32g#
32dd#
16g#
16g#[
16g#]
=143
8r
16d#[
16d#]
4e
2r
=144
1r
=145
8r
8cc#
8e
16f#[
16f#]
16g#[
16g#]
16f#
16f#
16f#[
16f#]
16e[
16e]
=146
16d[
16d]
16c#
16c#
16c#[
16c#]
16B[
16B]
16c#
16g#
16f##
16g#[
16g#]
8a
16b
=147
16b[
16b]
8cc#
4r
4e#
4f#
=148
16c#
16g#
16f#
16g#
16g#
8a
16b
4b
4cc#
=149
16g
16dd#
16cc#
16dd#
16dd#
8ee
16ff#
4ff#
4gg#
=150
16g#
16aa#
16gg##
16aa#
16bb#
16eee
16.ggg#
32bbb#
4bbb#
4cccc#
=151
*M2/4
2r
=152
*M4/4
4.cc#
8dd#
4.ee
8ff#
=153
2gg#
2r
=154
2r
4r
8r
8g#
=155
4.a
8B#
2c#
=156
4.dd#
8cc#
4.ff#
8ee
=157
4.aa
8dd
2cc#
=158
4.dd#
8cc#
4.ff#
8ee
=159
4.aa
8dd
2cc#
=160
4.cc#
8dd#
4.ee
8ff#
=161
2gg#
2r
=162
4.a
8B#
2c#
=163
8d#
8e
8f#
8g#
8a
8b
8cc#
8dd
=164
4.dd#
8cc#
4.ff#
8ee
=165
4.aa
8dd
2cc#
=166
4.cc#
8dd#
4.ee
8ff#
=167
2gg#
2r
=168
4.a
8B#
2c#
=169
*M5/4
4r
16r
16g#
16cc#[
16cc#]
16ee[
16ee]
16ff#[
16ff#]
16gg#[
16gg#]
16dd#[
16dd#]
16gg#[
8gg#]
16a#
=170
*M5/4
4r
4r
4r
4r
16r
16dd#
16aa#[
16aa#]
=171
*M4/4
16bb#[
16bb#]
16ee[
16ee]
16aa#[
16aa#]
16bb#[
16bb#]
16ggg#
8ggg#[
16ggg#]
16gg#
8gg#[
16gg#]
=172
16r
16ggg#
16fff#
16eee
16ddd
16ccc#
16bb
16aa
16bb
16gg
16ff#
16ee
16dd
16cc#
16b
16a
=173
16b
16g
16e
16d
16B#
16B
8A
8B#[
8B#]
4c#
=174
16r
16B#
16d#[
16d#]
16e
16e
16f#[
16f#]
16g#[
16g#]
16b
16b
16f#
16f#
16g#
16g#
=175
16g#[
16g#]
16cc#
16cc#
16g
16g
16g#
16g#
16g#
16g#
16ff#
16ff#
16a
16a
16g#
16g#
=176
16f#
16B#
16d#[
16d#]
16e[
16e]
16f#[
16f#]
16g#[
16g#]
16b[
16b]
16f#
16f#
16g#
16g#
=177
16g#[
16g#]
16b#[
16b#]
16g[
16g]
16g#[
16g#]
16a[
16a]
16ff#[
16ff#]
16a
16a
16b[
16b]
=178
*M2/4
16b#[
16b#]
16aa[
16aa]
16b
16b
16b#[
16b#]
=179
*M4/4
16r
16g#
16cc#[
16cc#]
16ee[
16ee]
16ff#[
16ff#]
16gg#[
16gg#]
16dd#[
16dd#]
16gg#[
16gg#]
16aa#[
16aa#]
=180
16bb#[
16bb#]
16ee[
16ee]
16aa#[
16aa#]
16bb#[
16bb#]
16ggg#
8ggg#[
16ggg#]
16gg#
8gg#[
16gg#]
=181
16r
16ggg#
16fff#
16eee
16ddd
16ccc#
16bb
16aa
16bb
16gg
16ff#
16ee
16dd
16cc#
16b
16a
=182
16b
16g
16e
16d
16B#
16B
8A
8B#[
8B#]
4c#
=183
*M3/8
4.r
=184
8r
4ee[
=185
8ee]
4cc#[
=186
8cc#]
4a[
=187
8a]
4g#[
=188
8g#]
4cc#[
=189
8cc#]
4ff#[
=190
8ff#]
4gg#[
=191
8gg#]
4cc#[
=192
8cc#]
4dd#[
=193
8dd#]
4cc#[
=194
8cc#]
4b#[
=195
8b#]
4cc#[
=196
8cc#]
4dd#[
=197
8dd#]
4cc#[
=198
8cc#]
4b[
=199
8b]
4cc#[
=200
8cc#]
4aa[
=201
8aa]
4cc#[
=202
8cc#]
4ff#[
=203
8ff#]
4b[
=204
8b]
4ee[
=205
8ee]
4a[
=206
8a]
4dd#[
=207
8dd#]
4g#[
=208
8g#]
4dd#[
=209
8dd#]
4cc#[
=210
8cc#]
4b#[
=211
8b#]
4cc#[
=212
8cc#]
4dd#[
=213
8dd#]
4cc#[
=214
8cc#]
4b[
=215
8b]
4cc#[
=216
8cc#]
4aa[
=217
8aa]
4cc#[
=218
8cc#]
4ff#[
=219
8ff#]
4b[
=220
8b]
4ee[
=221
8ee]
4a[
=222
8a]
4dd#[
=223
8dd#]
8g#
8r
=224
8r
4ee[
=225
8ee]
4a[
=226
8a]
4ff#
=227
8ff#
4b
=228
8r
4eee[
=229
8eee]
4bb#[
=230
8bb#]
4aa
=231
8aa
4ee#
=232
8dd#
8r
8a#
=233
8b#
8cc#
8dd#
=234
8ee#
8ff##
8gg#
=235
8aa#
8bb#
8ccc#
=236
8ddd
4ddd#[
=237
8ddd#]
4bb[
=238
8bb]
4gg#[
=239
8gg#]
4ee
=240
8dd
8r
8a
=241
8b
8b#
8dd
=242
8ee
8ff#
8gg
=243
8gg#
8aa
8aa#
=244
8r
4bb[
=245
8bb]
4ff#
=246
8ff#
4ff#[
=247
8ff#]
4ee
=248
8r
4ccc#[
=249
8ccc#]
4gg#
=250
8gg#
4gg#
=251
8gg#
4ff#
=252
8r
8dd#
8ee#
=253
8ff#
8gg#
8aa#
=254
8bb
8ccc#
8ddd#
=255
8eee
8fff#
8ggg#
=256
8r
8ee#
8gg
=257
8gg#
8aa#
8bb#
=258
8ccc#
8ddd#
8eee#
=259
8fff#
8ggg#
8aaa#
=260
8r
4bbb[
=261
8bbb]
4ggg#[
=262
8ggg#]
4eee[
=263
8eee]
4ddd[
=264
8ddd]
4bb#[
=265
8bb#]
4gg#[
=266
8gg#]
4ee[
=267
8ee]
4b#
=268
8r
4g#[
=269
8g#]
4f#
=270
4.f#[
=271
4.f#]
=272
8g#
8a
8b
=273
8cc#
8dd
8ee
=274
8ff#
8gg#
8aa
=275
8bb
8ccc#
8ddd
=276
8r
4c#[
=277
8c#]
4B
=278
4.B[
=279
8B]
8B
8c#
=280
8d#
8e
8f#
=281
8g#
8a#
8b#
=282
8cc#
8dd#
8ee
=283
8ff#
8gg
8gg#
=284
8aa#
8bb#
8ccc#
=285
8ddd
8ddd#
8eee
=286
8eee#
8ddd
8bb
=287
8gg#
8ee#
8dd
=288
8b
8g#
8e#
=289
8f#
8g#
8a
=290
8b
8b#
8cc#
=291
8dd#
8ee#
8ff#
=292
8gg#
8aa
8bb
=293
8bb#
8ccc#
8ddd#
=294
8eee
8gg
8ee
=295
8cc#
8a#
8g
=296
8a
8a#
8b#
=297
8dd
8ee
8ee#
=298
8gg
8aa
8bb
=299
8bb#
8ddd
8eee
=300
8eee#
8ggg
8aaa
=301
8bbb
8bbb#
8dddd
=302
8eeee
8ggg#
8eee
=303
8bb#
8ccc#
8ddd#
=304
8eee
8gg#
8ee
=305
8b#
8cc#
8dd#
=306
8ee
8g#
8e
=307
8B#
8c#
8d#
=308
8e
8G#
8E
=309
8BB#
8C#
8D#
=310
8E
8GG#
8EE
=311
4.r
=312
4.r
=313
8GG#
8C#
8E
=314
4.G#
=315
4.G#
=316
4.G#
=317
4.G#[
=318
4.G#]
=319
*M3/4
2.r
=320
8ff#
8ee#
4dd#
8cc#
8a#
=321
4g#
4g#
8e
8d#
=322
8a
8g#
8f#
8e#
8d#
8c#
=323
8r
8B
8a
4.d#
=324
4.B
8B#
8c#
8b
=325
*M4/4
8b
8d
8d#
8e
8f#
8g#[
4g#]
=326
*M3/4
8ff#
4ee#
8dd#
8cc#
8a#[
=327
8a#]
8g#
8g#
8b
8f#[
8f#]
=328
8a
8g#
8f#
4e#
8d#[
=329
8d#]
8cc#
8cc#
8b#
8b#
8a#[
=330
4a#]
8f#
4ff#
8ee#
=331
4ee#
8b
8b
8b
8bb
=332
8bb
4bb
4bb
8bb[
=333
8bb]
8aa#[
8aa#]
8gg#
8ff#
8dd#
=334
8cc#
8cc#
8cc#
8ee
8b
8b
=335
8b
8dd
8cc#
8b
4b
=336
4.f#
4ff#
8ff#[
=337
8ff#]
4g#
4gg#
8gg#[
=338
4gg#]
8r
4ccc#
8ccc#
=339
8fff#
8eee#
8ddd#
8ddd#
8ccc#
8aa#
=340
4gg#
8gg#
8bb
8ff#[
8ff#]
=341
8aa
8gg#
8ff#
8ee#
8dd#
8cc#
=342
8b#
8a#
8g#
8f#
8e#
8d#
=343
4c#
8d#
4e#
8f#
=344
4g#[
2g#]
=345
2.r
==
*-
